src/main/resources/icons/DatabaseIcons/icons/colGoldBlueKeyDot_dark.svg

<svg xmlns="http://www.w3.org/2000/svg" width="16" height="16" viewBox="0 0 16 16">
  <g fill="none" fill-rule="evenodd" transform="matrix(-1 0 0 1 16 2)">
    <path fill="#9AA7B0" fill-opacity=".8" d="M15,8.33681558 C14.5453723,8.12084552 14.0367986,8 13.5,8 C11.5670034,8 10,9.56700338 10,11.5 C10,11.6697607 10.012086,11.8366985 10.0354444,12 L10,12 L10,0 L15,0 L15,8.33681558 Z"/>
    <path fill="#9AA7B0" d="M2,11 L2,12 L1,12 L1,9.46487122 C1.30950643,9.64391102 1.64522911,9.7826708 2,9.87398251 L2,11 Z M5.6458244,9 C5.96981926,8.71403623 6.24713257,8.37640519 6.46487122,8 L9,8 L9,9 L6,9 L5.6458244,9 Z M6,11 L9,11 L9,12 L6,12 L6,11 Z M1,2.53512878 L1,0 L9,0 L9,3 L6,3 L6,3.3541756 C5.26705555,2.52375489 4.19469253,2 3,2 C2.27142571,2 1.58834673,2.19478857 1,2.53512878 Z M6.87398251,5 L9,5 L9,6 L7,6 C7,5.65470043 6.956247,5.31961992 6.87398251,5 Z"/>
    <circle cx="13.5" cy="11.5" r="2.5" fill="#9AA7B0"/>
    <g transform="matrix(-1 0 0 1 6 3)">
      <path fill="#40B6E0" d="M3,0 L3,2 C2.44771525,2 2,2.44771525 2,3 C2,3.55228475 2.44771525,4 3,4 L3,11 L2,11 L2,5.82929429 C0.834807627,5.41745788 0,4.30621883 0,3 C0,1.34314575 1.34314575,0 3,0 Z"/>
      <path fill="#D9A343" d="M3,0 C4.65685425,0 6,1.34314575 6,3 C6,4.30621883 5.16519237,5.41745788 4,5.82929429 L4,8 L6,8 L6,10 L4,10 L4,11 L3,11 L3,4 C3.55228475,4 4,3.55228475 4,3 C4,2.44771525 3.55228475,2 3,2 L3,0 Z"/>
    </g>
  </g>
</svg>

<svg xmlns="http://www.w3.org/2000/svg" width="16" height="16" viewBox="0 0 16 16"><rect id="frame" width="16" height="16" fill="none"/><g fill="none" fill-rule="evenodd" transform="matrix(-1 0 0 1 16 2)"><path fill="#9AA7B0" fill-opacity=".8" d="M15 8.337A3.5 3.5 0 0 0 10.035 12H10V0h5v8.337z"/><path fill="#9AA7B0" d="M2 11v1H1V9.465c.31.179.645.318 1 .409V11zm3.646-2c.324-.286.601-.624.819-1H9v1H5.646zM6 11h3v1H6v-1zM1 2.535V0h8v3H6v.354A3.99 3.99 0 0 0 3 2c-.729 0-1.412.195-2 .535zM6.874 5H9v1H7c0-.345-.044-.68-.126-1z"/><circle cx="13.5" cy="11.5" r="2.5" fill="#9AA7B0"/><path fill="#40B6E0" d="M3 3v2a1 1 0 1 1 0 2v7h1V8.83A3.001 3.001 0 0 0 3 3z"/><path fill="#D9A343" d="M3 3a3 3 0 0 0-1 5.83V11H0v2h2v1h1V7a1 1 0 1 1 0-2V3z"/></g></svg>
